X:237
T:Paddy Ryan's dream
T:The humours of Ennistymon
T:Miss Lyall
R:Reel
O:Ireland, Scotland
B:The Fiddle Music of Scotland p191
B:Krassen O'Neill's p92
B:Kerr's Fourth p20
B:O'Neill's 1181
S:O'Neill's 1181
Z:Transcription:Trish O'Neil, arrangement, chords:Mike Long
M:C|
L:1/8
K:G
cB|:\
"Am"AE~E2 cABG|"G"(3(EFG) DC B,CDB,|"F"~A,2 A,B, CDEG|"G"cABG ABcB|\
"Am"AE~E2 cABG|"G"(3(EFG) DC B,CDB,|
"F"~A,2 A,B, CDEG|"G"cABG "Am"A2cB:|\
|:"Am"Aaa^g aecA|"G"Gggf gdBG|"Am"Aaa^g "F"ae=fd|
"G"ecdB (3(cBA) BG|\
"Am"Aaa^g aecA|"G"Gggf gdBG|"F"Ac (3(Bcd) ced=f|"G"edcB "Am"ABcB:|
